X:0307
M:6/8
L:1/8
Q:3/8=88
K:G
e|d2G  BAG    |ABA c2e|d2c  B2A    |Ggd Bcd| \
  ede  gdB    |ABA c2e|dBG  cAF    |Ggd B2||
  ede  gdB    |ABA c2e|d2c  B2A    |Ggd B2|]

